X:0572
T:The Green Garters.
M:6/8
L:1/8
Q:3/8=72
I: || ||
Z:Jack Campin * www.campin.me.uk * 2009
K:G
d/c/|BGG  G>AG|G>Bd  dcB     |cAA  A>TBA|A>Bd Ted||
d   |d>ef g>ag|b>ag TeHd e/f/|g>fe d<gB |A>GA  BG|]

